assets/icons/gift.svg

<svg fill="none" height="32" viewBox="0 0 32 32" width="32" xmlns="http://www.w3.org/2000/svg"><g stroke="#272e39" stroke-linecap="round" stroke-linejoin="round" stroke-width="2"><path d="m27 10h-22c-.55229 0-1 .4477-1 1v4c0 .5523.44771 1 1 1h22c.5523 0 1-.4477 1-1v-4c0-.5523-.4477-1-1-1z"/><path d="m26 16v9c0 .2652-.1054.5196-.2929.7071s-.4419.2929-.7071.2929h-18c-.26522 0-.51957-.1054-.70711-.2929-.18753-.1875-.29289-.4419-.29289-.7071v-9"/><path d="m16 10v16"/><path d="m21.6569 8.58578c-1.4143 1.41421-5.6569 1.41421-5.6569 1.41421s0-4.24264 1.4142-5.65685c.5627-.56208 1.3256-.8777 2.121-.87747.7953.00022 1.558.31628 2.1204.87868s.8785 1.32511.8787 2.12046c.0003.79536-.3154 1.55825-.8774 2.12097z"/><path d="m10.3432 8.58578c1.4142 1.41421 5.6568 1.41421 5.6568 1.41421s0-4.24264-1.4142-5.65685c-.5627-.56208-1.3256-.8777-2.121-.87747-.7953.00022-1.558.31628-2.1204.87868-.56242.5624-.87848 1.32511-.8787 2.12046-.00023.79536.31539 1.55825.8775 2.12097z"/></g></svg>

<svg width="32" height="32" viewBox="0 0 32 32" fill="none" xmlns="http://www.w3.org/2000/svg">
<path d="M27 10H5C4.44771 10 4 10.4477 4 11V15C4 15.5523 4.44771 16 5 16H27C27.5523 16 28 15.5523 28 15V11C28 10.4477 27.5523 10 27 10Z" stroke="#272E39" stroke-width="2" stroke-linecap="round" stroke-linejoin="round"/>
<path d="M26 16V25C26 25.2652 25.8946 25.5196 25.7071 25.7071C25.5196 25.8946 25.2652 26 25 26H7C6.73478 26 6.48043 25.8946 6.29289 25.7071C6.10536 25.5196 6 25.2652 6 25V16" stroke="#272E39" stroke-width="2" stroke-linecap="round" stroke-linejoin="round"/>
<path d="M16 10V26" stroke="#272E39" stroke-width="2" stroke-linecap="round" stroke-linejoin="round"/>
<path d="M21.6569 8.58578C20.2426 9.99999 16 9.99999 16 9.99999C16 9.99999 16 5.75735 17.4142 4.34314C17.9769 3.78106 18.7398 3.46544 19.5352 3.46567C20.3305 3.46589 21.0932 3.78195 21.6556 4.34435C22.218 4.90675 22.5341 5.66946 22.5343 6.46481C22.5346 7.26017 22.2189 8.02306 21.6569 8.58578V8.58578Z" stroke="#272E39" stroke-width="2" stroke-linecap="round" stroke-linejoin="round"/>
<path d="M10.3432 8.58578C11.7574 9.99999 16 9.99999 16 9.99999C16 9.99999 16 5.75735 14.5858 4.34314C14.0231 3.78106 13.2602 3.46544 12.4648 3.46567C11.6695 3.46589 10.9068 3.78195 10.3444 4.34435C9.78198 4.90675 9.46592 5.66946 9.4657 6.46481C9.46547 7.26017 9.78109 8.02306 10.3432 8.58578V8.58578Z" stroke="#272E39" stroke-width="2" stroke-linecap="round" stroke-linejoin="round"/>
</svg>
